X:1
T:Blandt alle Lande
T:Blandt alle Lande
T:O. Vig
T:Hans Matthison-Hansen
C:Hans Matthison-Hansen
%%score [ 1 2 3 4 ]
L:1/8
Q:1/4=70
M:6/8
K:G
V:1 treble nm="Soprano"
V:2 treble nm="Alto"
V:3 treble-8 nm="Tenor"
V:4 bass nm="Bass"
V:1
"^Allegretto"!p! E | B2 B B A F | G2 F E2 F |!<(! G2 G A!<)! G A | B2 B B2!f! B | e2 d c B A | %6
w: 1.Blandt|al- le Lan- de i|Öst og Vest, er|Fæ- dre- lan- det mit|Hjær- te næst; det|gam- le Nor- ge med|
 B2!>(! A G E F!>)! | G2 F E2 z |] %8
w: Klip- pe- bor- ge mig|hu- er bedst.|
V:2
!p! E | G2 G A F ^D | E2 ^D E2 B, |!<(! E2 E E!<)! E E | ^D2 E F2!f! F | B2 B A G F | %6
w: 1.Blandt|al- le Lan- de i|Öst og Vest, er|Fæ- dre- lan- det mit|Hjær- te næst; det|gam- le Nor- ge med|
 F2!>(! F E E E!>)! | E2 ^D E2 z |] %8
w: Klip- pe- bor- ge mig|hu- er bedst.|
V:3
!p! e | e2 e f ^d A | B2 A B2 A |!<(! B2 B c!<)! c F | F2 G B2!f! ^d | e2 e e e e | %6
w: 1.Blandt|al- le Lan- de i|Öst og Vest, er|Fæ- dre- lan- det mit|Hjær- te næst; det|gam- le Nor- ge med|
 ^d2!>(! d B B c!>)! | B2 A G2 z |] %8
w: Klip- pe- bor- ge mig|hu- er bedst.|
V:4
!p! E, | E,2 E, ^D, B,, B,, | E,2 B,, E,2 ^D, |!<(! E,2 E, C,!<)! C, C, | B,,2 E, ^D,2!f! A, | %5
w: 1.Blandt|al- le Lan- de i|Öst og Vest, er|Fæ- dre- lan- det mit|Hjær- te næst; det|
 G,2 ^G, A, B, C | B,2!>(! B,, E, G, A,!>)! | B,2 B,, E,2 z |] %8
w: gam- le Nor- ge med|Klip- pe- bor- ge mig|hu- er bedst.|

